X:1
T:Branford Jig
C:Jane Rothfield
M:6/8
L:1/8
K:G
"G"{_B,}=B,2D {_B,}=B,2D|B,DG B3|{_B,}=B,2D {_B,}=B,A,G,|"D"A,6|
"G"{_B,}=B,2D {_B,}=B,2D|B,DG B3|BcB "D"AGF|"G"G6:|
|:"C"{_E}=E3E2D|E2FG2A|"G"{_B}=B3 BAG|{_B}=B3 BAG|
"C"{_E}=E3E2D|E2FG2A|"G"{_B}=B3 "D"AGF|"G"G6:|
W: © Jane Rothfield (BMI)  |  www.janerothfield.com  |  All rights reserved.
